Numix/64/mimetypes/image-x-fuji-raf.svg

<?xml version="1.0" encoding="UTF-8" standalone="no"?>
<svg
   xmlns:dc="http://purl.org/dc/elements/1.1/"
   xmlns:cc="http://creativecommons.org/ns#"
   xmlns:rdf="http://www.w3.org/1999/02/22-rdf-syntax-ns#"
   xmlns:svg="http://www.w3.org/2000/svg"
   xmlns="http://www.w3.org/2000/svg"
   xmlns:sodipodi="http://sodipodi.sourceforge.net/DTD/sodipodi-0.dtd"
   xmlns:inkscape="http://www.inkscape.org/namespaces/inkscape"
   width="64px"
   height="64px"
   viewBox="0 0 64 64"
   version="1.1"
   id="svg2"
   inkscape:version="0.91 r13725"
   sodipodi:docname="image-x-fuji-raf.svg">
  <metadata
     id="metadata17">
    <rdf:RDF>
      <cc:Work
         rdf:about="">
        <dc:format>image/svg+xml</dc:format>
        <dc:type
           rdf:resource="http://purl.org/dc/dcmitype/StillImage" />
        <dc:title />
      </cc:Work>
    </rdf:RDF>
  </metadata>
  <defs
     id="defs15">
    <clipPath
       id="clipPath-258929573">
      <g
         transform="translate(0,-1004.3622)"
         id="g17">
        <path
           inkscape:connector-curvature="0"
           d="m -24,13 c 0,1.105 -0.672,2 -1.5,2 -0.828,0 -1.5,-0.895 -1.5,-2 0,-1.105 0.672,-2 1.5,-2 0.828,0 1.5,0.895 1.5,2 z"
           transform="matrix(15.333333,0,0,11.5,414.99999,878.8622)"
           style="fill:#1890d0"
           id="path19" />
      </g>
    </clipPath>
    <clipPath
       id="clipPath-258929573-7">
      <g
         transform="translate(0,-1004.3622)"
         id="g17-7">
        <path
           inkscape:connector-curvature="0"
           d="m -24,13 c 0,1.105 -0.672,2 -1.5,2 -0.828,0 -1.5,-0.895 -1.5,-2 0,-1.105 0.672,-2 1.5,-2 0.828,0 1.5,0.895 1.5,2 z"
           transform="matrix(15.333333,0,0,11.5,414.99999,878.8622)"
           style="fill:#1890d0"
           id="path19-9" />
      </g>
    </clipPath>
  </defs>
  <sodipodi:namedview
     pagecolor="#ffffff"
     bordercolor="#666666"
     borderopacity="1"
     objecttolerance="10"
     gridtolerance="10"
     guidetolerance="10"
     inkscape:pageopacity="0"
     inkscape:pageshadow="2"
     inkscape:window-width="1920"
     inkscape:window-height="1013"
     id="namedview13"
     showgrid="true"
     inkscape:zoom="22.627417"
     inkscape:cx="24.927926"
     inkscape:cy="30.512131"
     inkscape:window-x="0"
     inkscape:window-y="27"
     inkscape:window-maximized="1"
     inkscape:current-layer="svg2">
    <inkscape:grid
       type="xygrid"
       id="grid4208" />
  </sodipodi:namedview>
  <path
     inkscape:connector-curvature="0"
     id="path5"
     d="M 10.671875,0 C 9.296875,0 8,1.355469 8,2.789062 L 8,61.210938 C 8,62.566406 9.375,64 10.671875,64 l 42.65625,0 C 54.625,64 56,62.566406 56,61.210938 L 56,18 38,0 Z m 0,0"
     style="fill:#35a14c;fill-opacity:1;fill-rule:nonzero;stroke:none" />
  <path
     inkscape:connector-curvature="0"
     id="path7"
     d="m 42,18 14,14 0,-14 z m 0,0"
     style="fill:#000000;fill-opacity:0.19607801;fill-rule:nonzero;stroke:none" />
  <path
     inkscape:connector-curvature="0"
     id="path9"
     d="M 38,0 55.984375,18 40.757812,18 C 39.410156,18 38,16.574219 38,15.226562 Z m 0,0"
     style="fill:#ffffff;fill-opacity:0.39215698;fill-rule:nonzero;stroke:none" />
  <path
     inkscape:connector-curvature="0"
     id="path13"
     d="M 8,48 8,61.33594 C 8,62.63281 9.375,64 10.664062,64 l 42.671876,0 C 54.625,64 56,62.63281 56,61.33594 L 56,48 Z m 0,0"
     style="fill:#000000;fill-opacity:0.19607801;fill-rule:nonzero;stroke:none" />
  <g
     id="g4210"
     transform="translate(1,0)">
    <path
       d="m 20.942529,51 q 0.974712,0 1.765517,0.210862 0.790804,0.210863 1.36092,0.65016 0.570114,0.439297 0.864367,1.1246 0.312643,0.667732 0.312643,1.58147 0,0.948882 -0.404598,1.722045 -0.404597,0.773163 -1.342528,1.177317 0.312645,0.456869 0.662069,1.01917 0.349425,0.544728 0.680459,1.159744 0.331036,0.597444 0.625288,1.21246 Q 25.77931,61.455272 26,62 l -2.372414,0 Q 23.204597,60.945687 22.634483,59.979234 22.082759,58.995208 21.43908,57.993611 l -1.177011,0 0,4.006389 L 18,62 18,51.28115 q 0.331034,-0.07029 0.717241,-0.123003 0.404598,-0.07029 0.809195,-0.08786 0.404598,-0.03514 0.772414,-0.05272 Q 20.666666,51 20.942529,51 Z m 2.004597,3.549521 q 0,-0.861023 -0.551724,-1.265175 -0.551724,-0.404155 -1.452873,-0.404155 -0.128736,0 -0.312644,0.01757 -0.183909,0 -0.367816,0.03514 l 0,3.268372 0.496552,0 q 1.15862,0 1.673562,-0.421726 0.514943,-0.439297 0.514943,-1.230031 z"
       style="font-style:normal;font-variant:normal;font-weight:bold;font-stretch:normal;font-size:medium;line-height:125%;font-family:'Ubuntu Mono';-inkscape-font-specification:'Ubuntu Mono, Bold';text-align:start;letter-spacing:0px;word-spacing:0px;writing-mode:lr-tb;text-anchor:start;fill:#ffffff;fill-opacity:1;stroke:none;stroke-width:1px;stroke-linecap:butt;stroke-linejoin:miter;stroke-opacity:1"
       id="path4199"
       inkscape:connector-curvature="0" />
    <path
       d="m 33.53527,62 -0.541495,-2.541195 -3.080912,0 L 29.390041,62 27,62 Q 27.821576,58.747981 28.661825,56.082391 29.502075,53.399032 30.286307,51 l 2.502075,0 q 0.821577,2.416802 1.62448,5.135703 Q 35.23444,58.836834 36,62 l -2.46473,0 z m -2.053942,-8.867528 q -0.186722,0.621971 -0.354773,1.19063 -0.149377,0.550888 -0.298755,1.101777 -0.130705,0.533119 -0.26141,1.084007 -0.112034,0.550889 -0.224067,1.137318 l 2.259337,0 q -0.112034,-0.586429 -0.224066,-1.137318 -0.112034,-0.550888 -0.261412,-1.084007 -0.130705,-0.550889 -0.298754,-1.101777 -0.149378,-0.568659 -0.3361,-1.19063 z"
       style="font-style:normal;font-variant:normal;font-weight:bold;font-stretch:normal;font-size:medium;line-height:125%;font-family:'Ubuntu Mono';-inkscape-font-specification:'Ubuntu Mono, Bold';text-align:start;letter-spacing:0px;word-spacing:0px;writing-mode:lr-tb;text-anchor:start;fill:#ffffff;fill-opacity:1;stroke:none;stroke-width:1px;stroke-linecap:butt;stroke-linejoin:miter;stroke-opacity:1"
       id="path4201"
       inkscape:connector-curvature="0" />
    <path
       d="m 37,62 0,-11 7,0 0,2 -4.728232,0 0,2 4.137203,0 0,2 -4.137203,0 0,5 z"
       style="font-style:normal;font-variant:normal;font-weight:bold;font-stretch:normal;font-size:medium;line-height:125%;font-family:'Ubuntu Mono';-inkscape-font-specification:'Ubuntu Mono, Bold';text-align:start;letter-spacing:0px;word-spacing:0px;writing-mode:lr-tb;text-anchor:start;fill:#ffffff;fill-opacity:1;stroke:none;stroke-width:1px;stroke-linecap:butt;stroke-linejoin:miter;stroke-opacity:1"
       id="path4203"
       inkscape:connector-curvature="0"
       sodipodi:nodetypes="ccccccccccc" />
  </g>
  <g
     transform="matrix(0.80051185,0,0,0.80026785,12.788106,12.78717)"
     style="fill:#ffffff;fill-opacity:1"
     id="g59">
    <g
       id="g61"
       clip-path="url(#clipPath-258929573-7)"
       style="fill:#ffffff">
      <!-- color: #3d3d3d -->
      <g
         id="g63"
         style="fill:#ffffff">
        <path
           inkscape:connector-curvature="0"
           d="M 27.08,9.641 23.471,19.793 37.705,17.43 C 35.603,13.438 31.721,10.5 27.08,9.641 m 0,0"
           style="fill:#ffffff;fill-rule:nonzero;stroke:none"
           id="path65" />
        <path
           inkscape:connector-curvature="0"
           d="m 38.15,19.449 -10.738,1.988 9.199,10.98 c 2.457,-3.797 3.09,-8.586 1.527,-12.969 m 0.012,0"
           style="fill:#ffffff;fill-rule:nonzero;stroke:none"
           id="path67" />
        <path
           inkscape:connector-curvature="0"
           d="m 35.07,33.809 -7.121,-8.164 -5.05,13.344 c 4.566,0.195 9.09,-1.656 12.156,-5.18 m 0.012,0"
           style="fill:#ffffff;fill-rule:nonzero;stroke:none"
           id="path69" />
        <path
           inkscape:connector-curvature="0"
           d="m 20.922,38.36 3.617,-10.152 -14.242,2.363 c 2.109,3.996 5.996,6.934 10.625,7.789 m 0,0"
           style="fill:#ffffff;fill-rule:nonzero;stroke:none"
           id="path71" />
        <path
           inkscape:connector-curvature="0"
           d="M 9.852,28.559 20.586,26.571 11.387,15.591 C 8.934,19.392 8.297,24.177 9.86,28.56 m -0.008,0"
           style="fill:#ffffff;fill-rule:nonzero;stroke:none"
           id="path73" />
        <path
           inkscape:connector-curvature="0"
           d="m 12.926,14.207 7.121,8.164 5.05,-13.344 c -4.563,-0.195 -9.09,1.656 -12.152,5.18 m -0.016,0"
           style="fill:#ffffff;fill-rule:nonzero;stroke:none"
           id="path75" />
      </g>
    </g>
  </g>
</svg>

<svg xmlns="http://www.w3.org/2000/svg" viewBox="0 0 64 64">
 <defs>
  
 </defs>
 <path d="m 10.672 0 c -1.375 0 -2.672 1.355 -2.672 2.789 l 0 58.42 c 0 1.355 1.375 2.789 2.672 2.789 l 42.656 0 c 1.297 0 2.672 -1.434 2.672 -2.789 l 0 -43.21 -18 -18 m -27.328 0" style="fill:#35a14c;fill-opacity:1;stroke:none;fill-rule:nonzero"/>
 <path d="m 42 18 14 14 0 -14 z m 0 0" style="fill:#000;fill-opacity:0.196;stroke:none;fill-rule:nonzero"/>
 <path d="m 38 0 17.984 18 -15.227 0 c -1.348 0 -2.758 -1.426 -2.758 -2.773 m 0 -15.227" style="fill:#fff;fill-opacity:0.392;stroke:none;fill-rule:nonzero"/>
 <path d="m 8 48 0 13.336 c 0 1.297 1.375 2.664 2.664 2.664 l 42.672 0 c 1.289 0 2.664 -1.367 2.664 -2.664 l 0 -13.336 m -48 0" style="fill:#000;fill-opacity:0.196;stroke:none;fill-rule:nonzero"/>
 <g transform="translate(1,0)">
  <path d="m 20.943 51 q 0.975 0 1.766 0.211 0.791 0.211 1.361 0.65 0.57 0.439 0.864 1.125 0.313 0.668 0.313 1.581 0 0.949 -0.405 1.722 -0.405 0.773 -1.343 1.177 0.313 0.457 0.662 1.019 0.349 0.545 0.68 1.16 0.331 0.597 0.625 1.212 q 0.313 0.597 0.533 1.142 l -2.372 0 q -0.423 -1.054 -0.993 -2.02 -0.552 -0.984 -1.195 -1.986 l -1.177 0 0 4.01 l -2.262 0 0 -10.719 q 0.331 -0.07 0.717 -0.123 0.405 -0.07 0.809 -0.088 0.405 -0.035 0.772 -0.053 q 0.368 -0.018 0.644 -0.018 m 2 3.55 q 0 -0.861 -0.552 -1.265 -0.552 -0.404 -1.453 -0.404 -0.129 0 -0.313 0.018 -0.184 0 -0.368 0.035 l 0 3.268 0.497 0 q 1.159 0 1.674 -0.422 0.515 -0.439 0.515 -1.23 z" style="fill:#fff;fill-opacity:1;stroke:none"/>
  <path d="m 33.535 62 -0.541 -2.541 -3.081 0 l -0.523 2.541 -2.39 0 q 0.822 -3.252 1.662 -5.918 0.84 -2.683 1.624 -5.082 l 2.502 0 q 0.822 2.417 1.624 5.136 q 0.822 2.701 1.587 5.864 l -2.465 0 z m -2.054 -8.868 q -0.187 0.622 -0.355 1.191 -0.149 0.551 -0.299 1.102 -0.131 0.533 -0.261 1.084 -0.112 0.551 -0.224 1.137 l 2.259 0 q -0.112 -0.586 -0.224 -1.137 -0.112 -0.551 -0.261 -1.084 -0.131 -0.551 -0.299 -1.102 -0.149 -0.569 -0.336 -1.191 z" style="fill:#fff;fill-opacity:1;stroke:none"/>
  <path d="m 37 62 0 -11 7 0 0 2 -4.728 0 0 2 4.137 0 0 2 -4.137 0 0 5 z" style="fill:#fff;fill-opacity:1;stroke:none"/>
 </g>
 <g transform="matrix(0.80051185,0,0,0.80026785,12.788106,12.78717)" style="fill:#fff;fill-opacity:1">
  <g style="clip-path:url(#clipPath-258929573-7);fill:#fff">
   <!-- color: #3d3d3d -->
   <g style="fill:#fff">
    <path d="M 27.08,9.641 23.471,19.793 37.705,17.43 C 35.603,13.438 31.721,10.5 27.08,9.641 m 0,0" style="fill:#fff;stroke:none;fill-rule:nonzero"/>
    <path d="m 38.15 19.449 -10.738 1.988 9.199 10.98 c 2.457 -3.797 3.09 -8.586 1.527 -12.969 m 0.012 0" style="fill:#fff;stroke:none;fill-rule:nonzero"/>
    <path d="m 35.07 33.809 -7.121 -8.164 -5.05 13.344 c 4.566 0.195 9.09 -1.656 12.156 -5.18 m 0.012 0" style="fill:#fff;stroke:none;fill-rule:nonzero"/>
    <path d="m 20.922 38.36 3.617 -10.152 -14.242 2.363 c 2.109 3.996 5.996 6.934 10.625 7.789 m 0 0" style="fill:#fff;stroke:none;fill-rule:nonzero"/>
    <path d="M 9.852,28.559 20.586,26.571 11.387,15.591 C 8.934,19.392 8.297,24.177 9.86,28.56 m -0.008,0" style="fill:#fff;stroke:none;fill-rule:nonzero"/>
    <path d="m 12.926 14.207 7.121 8.164 5.05 -13.344 c -4.563 -0.195 -9.09 1.656 -12.152 5.18 m -0.016 0" style="fill:#fff;stroke:none;fill-rule:nonzero"/>
   </g>
  </g>
 </g>
</svg>
